22x22/actions/edit-paste.svg

<svg xmlns="http://www.w3.org/2000/svg" viewBox="0 0 22 22"><path style="fill:currentColor;fill-opacity:1;stroke:none;color:#5d656b" d="M7 3v2H4v14h14V5h-3V3H7zM5 6h1v2h10V6h1v12H5V6zm2 3v1h8V9H7zm0 3v1h6v-1H7zm0 3v1h3v-1H7z"/></svg>

<svg xmlns="http://www.w3.org/2000/svg" viewBox="0 0 22 22">
  <defs id="defs3051">
    <style type="text/css" id="current-color-scheme">
      .ColorScheme-Text {
        color:#5d656b;
      }
      </style>
  </defs>
 <path 
     style="fill:currentColor;fill-opacity:1;stroke:none" 
     d="M 7 3 L 7 5 L 5 5 L 4 5 L 4 19 L 5 19 L 18 19 L 18 18 L 18 5 L 17 5 L 15 5 L 15 3 L 7 3 z M 5 6 L 6 6 L 6 8 L 16 8 L 16 6 L 17 6 L 17 18 L 5 18 L 5 6 z M 7 9 L 7 10 L 15 10 L 15 9 L 7 9 z M 7 12 L 7 13 L 13 13 L 13 12 L 7 12 z M 7 15 L 7 16 L 10 16 L 10 15 L 7 15 z "
     class="ColorScheme-Text"
     />
</svg>
